!! 00000] TT[00
!! NN
!!!OTL: Suqu ganbu hao zuofeng
!!!ARE: Asia, China,ÿJiangxi, Xingguo
!! Ethnic Group: Han
!! IV, 224
!!!SCT: C0405
!!!YEM: Copyright 1995, estate of Helmut Schaffrath.
**kern
*ICvox
*Ivox
!! 5/82+3 metric grouping
!! Mixed meters:  3/8; 4/8
*M4/8
*k[f#c#g#d#]
*E:
{8gg#
16gg#
16ee
4ff#
=1
4.gg#
4cc#}
{8ff#
16ff#
16gg#
16ff#
16ee
8gg#
16ff#
16gg#
=2
16ff#
16ee
8gg#
16ff#
16gg#
16ff#
16ee}
=3
{8ff#
8ff#
16ee
16ff#
16cc#
16cc#
=4
16cc#
16ee
32ff#
32ee
16cc#
16cc#
16ee
16cc#
16cc#
=5
2cc#}
=6
*M3/8
{8gg#
8gg#
16ee
16gg#
=7
16ff#
16ee
16ff#
16gg#
16ff#
16ff#
16ee
16cc#
16cc#
16cc#
=8
16ee
16ff#
8cc#
16ee
16cc#
4cc#}
{16cc#
16ee
16ee
16ff#
[4ff#
=9
8ff#]
8r}
{16ee
16ff#
=10
8gg#
16ff#
16ee
16ff#
16cc#
16cc#
16ff#
16ee
16ff#
=11
8cc#
4ee
16cc#
16ee
16cc#
16cc#
=12
2cc#}
==
!!!AGN: Shange, Xingguo shange. Geming lishi minge
!! Trotz des genres sind dies aber kejia-Lieder, also von Leuten, die
!!    vom Norden in den Sueden ausgewandert sind. Sehr typisch, Text
!!    aber neu.
!!    Wenig Verzierungen, Glissandi.
!!!ONB: ESAC (Essen Associative Code) Database: CHINA
!!!AMT: irregular
!!!AIN: vox
!!!EED: Helmut Schaffrath
!!!EEV: 1.0
*-
!!!ONB: Tied note syntax fixed by Craig Sapp, 2004/05/03/
